!!!!SEGMENT: pl-kk--kk-i-8--036_anonim--exultate-gaudete.krn
!!!cenid: 16xx:1177
!!!COM: Anonim
!!!COM-rismID: pe30004985
!!!CDT:
!!!CNT:
!!!OTL: Exultate gaudete
!!!PDT:
!!!AGN: Sacred
!!!SMS-siglum: PL-Kk
!!!SMS-shelfmark: Kk.I.8
!!!SMS-shelfwork: 036 W
!!!SMS-variant:
!!!SMS-altvar:
!!!NIFC-rismSourceID: 1001148105
!!!NIFC-rismChildID: 1001149241
!!!NIFC-islandoraID: pl-kk:2296
!!!URL-pdf-islandora: https://repozytorium.nifc.pl/islandora/object/pl-kk%3A2296/datastream/PDF/view
!!!URL-scan: https://polish.musicsources.pl/pl/lokalizacje/galeria/rekopisy/6141 @EN{Scan on Polish Music Sources Website} @PL{Skany w portalu Dziedzictwo Muzyki Polskiej w otwartym dostępie}
!!!ONB-nifc: UWAGA: A (brak), T1 (skan 0038), T2 (0061), B (0084). Następny utwór: Veni electa mea
!!!AIN: 1 bass 2 tenor
!!!key:
**kern	**fba	**text	**text	**text	**kern	**text	**text	**text	**kern	**text	**text	**text
*part3	*	*part3	*part3	*part3	*part2	*part2	*part2	*part2	*part1	*part1	*part1	*part1
*staff3	*	*staff3	*staff3	*staff3	*staff2	*staff2	*staff2	*staff2	*staff1	*staff1	*staff1	*staff1
*Ibass	*	*	*	*	*Itenor	*	*	*	*Itenor	*	*	*
*I"BASSVS.	*	*	*	*	*I"Tenor 2dus.	*	*	*	*I"Tenore 1mo	*	*	*
*I'B	*	*	*	*	*I'T 2	*	*	*	*I'T 1	*	*	*
*clefF4	*	*	*	*	*clefC1	*	*	*	*clefC4	*	*	*
*	*	*	*	*	*ITrd7c12	*	*	*	*	*	*	*
*k[b-]	*	*	*	*	*k[b-]	*	*	*	*k[b-]	*	*	*
*c:	*	*	*	*	*c:	*	*	*	*c:	*	*	*
*M3/2	*	*	*	*	*M3/2	*	*	*	*M3/2	*	*	*
=1	=1	=1	=1	=1	=1	=1	=1	=1	=1	=1	=1	=1
*all\right	*	*	*	*	*all\right	*	*	*	*all\right	*	*	*
!LO:TX:a:i:t=De Confeſsore et Martÿre	!	!	!	!	!LO:TX:t=P:problem=Partia zawarta w księdze tenorowej, zapisana w kluczu C1, jest poza skalą tenorową, zdecydowałem zapisać ją z transpozycją (AB)	!	!	!	!	!	!	!
2r	.	.	.	.	2r	.	.	.	2r	.	.	.
!	!	!	!	!	!LO:TX:a:i:t=De Confessore et Matÿre	!	!	!	!LO:TX:a:i:t=De Cofeſsore et Martyre	!	!	!
2c\	-	E-	.	.	2c\	E-	.	.	2e-X\	E-	.	.
2c\	.	-xul-	.	.	2G\	-xul-	.	.	2e-\	-xul-	.	.
=2	=2	=2	=2	=2	=2	=2	=2	=2	=2	=2	=2	=2
!LO:N:acc=#	!	!	!	!	!LO:N:acc=#	!	!	!	!	!	!	!
2Bn\	.	-ta-	.	.	2B\	-ta-	.	.	2d\	-ta-	.	.
2B\	.	-te	.	.	2B\	-te	.	.	2d\	-te	.	.
2B\	.	gau-	.	.	2d\	gau-	.	.	2d\	gau-	.	.
=3	=3	=3	=3	=3	=3	=3	=3	=3	=3-	=3	=3	=3
*M4/4	*	*	*	*	*M4/4	*	*	*	*M4/4	*	*	*
*met(c)	*	*	*	*	*met(c)	*	*	*	*met(c)	*	*	*
4c\	.	-de-	.	.	4c\	-de-	.	.	4e-X\	-de-	.	.
4c\	.	-te	.	.	4c\	-te	.	.	4e-\	-te	.	.
2F\	.	lae-	.	.	2A-X\	lae-	.	.	2c\	lae-	.	.
=4	=4	=4	=4	=4	=4	=4	=4	=4	=4	=4	=4	=4
!	!	!	!	!	!	!	!	!	!LO:N:acc=#	!	!	!
2G\	.	-ti	.	.	2G/	-ti	.	.	2Bn\	-ti	.	.
2A-X\	.	om-	.	.	4.G/	om-	.	.	2c\	om-	.	.
.	.	.	.	.	8F/	.	.	.	.	.	.	.
=5	=5	=5	=5	=5	=5	=5	=5	=5	=5	=5	=5	=5
!	!	!	!	!	!	!	!	!	!LO:N:acc=#	!	!	!
1G\	.	-nes	.	.	1G/	-nes	.	.	1Bn\	-nes	.	.
=6-	=6	=6	=6	=6	=6-	=6	=6	=6	=6-	=6	=6	=6
*M3/2	*	*	*	*	*M3/2	*	*	*	*M3/2	*	*	*
2E-X\	.	et	.	.	2B-\	et	.	.	2e-X\	et	.	.
2E-\	.	cae-	.	.	2B-\	cae-	.	.	2e-\	Cae-	.	.
2E-\	.	-li	.	.	2B-\	-li	.	.	2e-\	-li	.	.
=7	=7	=7	=7	=7	=7	=7	=7	=7	=7	=7	=7	=7
1B-\	.	ci-	.	.	1B-/	Ci-	.	.	1d\	ci-	.	.
2G\	.	-ues	.	.	2B-\	-ues	.	.	2e-X\	-ues	.	.
=8	=8	=8	=8	=8	=8	=8	=8	=8	=8	=8	=8	=8
!	!	!	!	!	!	!	!	!	!LO:SIC:v:s=2.e-	!	!	!
2.c\	.	iu-	.	.	2.c\	iu-	.	.	2.e\	iu-	.	.
4B-\	.	-gi-	.	.	4c\	-gi-	.	.	4d\	-gi-	.	.
2A-X\	.	-ter	.	.	2c\	-ter	.	.	2c\	-ter	.	.
=9-	=9	=9	=9	=9	=9	=9	=9	=9	=9	=9	=9	=9
!	!	!	!	!	!	!	!	!	!LO:SIC:v:s=2e-	!	!	!
2E-X\	.	Can-	.	.	2B-\	Can-	.	.	2e\	Can-	.	.
1BB-/	.	-ta-	.	.	1B-/	-ta-	.	.	2.e\	-ta-	.	.
.	.	.	.	.	.	.	.	.	4d\	.	.	.
=10	=10	=10	=10	=10	=10	=10	=10	=10	=10-	=10	=10	=10
!LO:SIC:v:s=1.E-	!	!	!	!	!	!	!	!	!	!	!	!
1.E\	.	-te	.	.	1.G/	-te	.	.	1e-X\	-te	.	.
*	*	*	*	*	*	*	*	*	*custos:d	*	*	*
.	.	.	.	.	.	.	.	.	2e-\	Can-	.	.
=11	=11	=11	=11	=11	=11-	=11	=11	=11	=11	=11	=11	=11
!LO:N:vis=1	!	!	!	!	!LO:N:vis=1	!	!	!	!LO:LB:g=original	!	!	!
1.rD	.	.	.	.	1.r	.	.	.	4d\	-ta-	.	.
.	.	.	.	.	.	.	.	.	4c\	.	.	.
.	.	.	.	.	.	.	.	.	4d\	.	.	.
!	!	!	!	!	!	!	!	!	!LO:N:acc=#	!	!	!
.	.	.	.	.	.	.	.	.	4Bn\	.	.	.
.	.	.	.	.	.	.	.	.	4c\	.	.	.
.	.	.	.	.	.	.	.	.	4d\	.	.	.
=12	=12	=12	=12	=12	=12-	=12	=12	=12	=12	=12	=12	=12
2C/	.	et	.	.	2G/	et	.	.	4c\	.	.	.
!	!	!	!	!	!	!	!	!	!LO:N:acc=#	!	!	!
.	.	.	.	.	.	.	.	.	4Bn\	.	.	.
2C/	.	cae-	.	.	2G/	cae-	.	.	4c\	.	.	.
.	.	.	.	.	.	.	.	.	4A\	.	.	.
*	*	*	*	*	*custos:G	*	*	*	*	*	*	*
2C/	.	-li	.	.	2G/	-li	.	.	4B\	.	.	.
.	.	.	.	.	.	.	.	.	4c\	.	.	.
=13	=13	=13	=13	=13	=13	=13	=13	=13	=13	=13	=13	=13
!	!	!	!	!	!	!	!	!	!LO:N:acc=#	!	!	!
2G\	.	Ci-	.	.	2G/	ci-	.	.	2Bn\	.	.	.
2G\	.	-ues	.	.	2G/	-ues	.	.	2B\	-te	.	.
2GG/	.	Can-	.	.	2d\	Can-	.	.	2B\	Can-	.	.
=14-	=14	=14	=14	=14	=14	=14	=14	=14	=14	=14	=14	=14
!LO:LB:g=original	!	!	!	!	!	!	!	!	!	!	!	!
4C/	.	-ta-	.	.	4e-X\	-ta-	.	.	1.c\	-ta-	.	.
4D/	.	.	.	.	4d\	.	.	.	.	.	.	.
4E-X/	.	.	.	.	4c\	.	.	.	.	.	.	.
4F/	.	.	.	.	4A\	.	.	.	.	.	.	.
4G\	.	.	.	.	4B-\	.	.	.	.	.	.	.
4A\	.	.	.	.	4c\	.	.	.	.	.	.	.
=15	=15	=15	=15	=15	=15	=15	=15	=15	=15-	=15	=15	=15
!LO:N:acc=#	!	!	!	!	!	!	!	!	!	!	!	!
4Bn\	.	.	.	.	4d\	.	.	.	1G/	-te	.	.
4A\	.	.	.	.	4c\	.	.	.	.	.	.	.
4B\	.	.	.	.	4d\	.	.	.	.	.	.	.
!	!	!	!	!	!LO:N:acc=#	!	!	!	!	!	!	!
4G\	.	.	.	.	4B\	.	.	.	.	.	.	.
4A\	.	.	.	.	4c\	.	.	.	2d\	Can-	.	.
4B\	.	.	.	.	4d\	.	.	.	.	.	.	.
=16	=16	=16	=16	=16	=16	=16	=16	=16	=16	=16	=16	=16
2c\	.	.	.	.	2e-X\	.	.	.	2c\	-ta-	.	.
2c\	.	-te	.	.	2e-\	-te	.	.	2e-X\	-te	.	.
*	*	*	*	*	*	*	*	*	*	*ij	*	*
2C/	.	Can-	.	.	2c\	Can-	.	.	2e-\	Can-	.	.
=17	=17	=17	=17	=17	=17	=17	=17	=17	=17	=17	=17	=17
1.D\	.	-ta-	.	.	4A\	-ta-	.	.	1.d\	-ta-	.	.
.	.	.	.	.	4G\	.	.	.	.	.	.	.
.	.	.	.	.	4A\	.	.	.	.	.	.	.
.	.	.	.	.	4F#X/	.	.	.	.	.	.	.
.	.	.	.	.	4G/	.	.	.	.	.	.	.
.	.	.	.	.	4ryy	.	.	.	.	.	.	.
=18	=18	=18	=18	=18	=18	=18	=18	=18	=18-	=18	=18	=18
1GG/	.	-te	.	.	2B-\	.	.	.	1d\	-te	.	.
*	*	*	*	*	*	*	*	*	*	*Xij	*	*
.	.	.	.	.	2B-\	-te	.	.	.	.	.	.
2G\	.	Can-	.	.	2d\	Can-	.	.	2B-\	Can-	.	.
=19	=19	=19	=19	=19	=19	=19	=19	=19	=19	=19	=19	=19
4F#X\	.	-ta-	.	.	1.A/	-ta-	.	.	4A/	-ta-	.	.
4E\	.	.	.	.	.	.	.	.	4G/	.	.	.
4F#\	.	.	.	.	.	.	.	.	4A/	.	.	.
4D\	.	.	.	.	.	.	.	.	4F#X/	.	.	.
4E\	.	.	.	.	.	.	.	.	4G/	.	.	.
4F#X\	.	.	.	.	.	.	.	.	4A/	.	.	.
=20	=20	=20	=20	=20	=20-	=20	=20	=20	=20-	=20	=20	=20
2G\	.	.	.	.	1G/	te	.	.	2B-\	.	.	.
2G\	.	-te	.	.	.	.	.	.	2B-\	-te	.	.
*	*	*ij	*	*	*	*ij	*	*	*	*	*	*
2GG/	.	Can-	.	.	2B-\	Can-	.	.	2d\	Can-	.	.
=21	=21	=21	=21	=21	=21	=21	=21	=21	=21	=21	=21	=21
1.D\	.	-ta-	.	.	4A\	-ta-	.	.	1.d\	-ta-	.	.
.	.	.	.	.	4G\	.	.	.	.	.	.	.
.	.	.	.	.	4A\	.	.	.	.	.	.	.
.	.	.	.	.	4F#X\	.	.	.	.	.	.	.
.	.	.	.	.	4G\	.	.	.	.	.	.	.
.	.	.	.	.	4A\	.	.	.	.	.	.	.
=22-	=22	=22	=22	=22	=22	=22	=22	=22	=22-	=22	=22	=22
*	*	*	*	*	*	*	*	*	*custos:e-	*	*	*
!	!	!	!	!	!LO:LB:g=original	!	!	!	!	!	!	!
1.GG/	.	-te	.	.	1B-/	.	.	.	1.d\	-te	.	.
.	.	.	.	.	2B-\	-te	.	.	.	.	.	.
*	*	*Xij	*	*	*	*Xij	*	*	*	*	*	*
=23-	=23	=23	=23	=23	=23	=23	=23	=23	=23	=23	=23	=23
!	!	!	!	!	!	!	!	!	!LO:LB:g=original	!	!	!
2E-X\	.	et	.	.	2B-\	et	.	.	2e-X\	et	.	.
2E-\	.	cae-	.	.	2B-\	cae-	.	.	2e-\	cae-	.	.
2E-\	.	-li	.	.	2B-\	-li	.	.	2e-\	-li	.	.
=24	=24	=24	=24	=24	=24	=24	=24	=24	=24	=24	=24	=24
1B-\	.	Ci-	.	.	1B-/	Ci-	.	.	1d\	Ci-	.	.
*custos:A-	*	*	*	*	*	*	*	*	*	*	*	*
2G\	.	-ues	.	.	2B-\	-ues	.	.	2B-\	-ues	.	.
=25-	=25	=25	=25	=25	=25-	=25	=25	=25	=25	=25	=25	=25
!LO:LB:g=original	!	!	!	!	!	!	!	!	!	!	!	!
2.A-X\	.	iu-	.	.	2.A-X\	iu-	.	.	2.c\	iu-	.	.
4G\	.	-gi-	.	.	4B-\	-gi-	.	.	4B-\	-gi-	.	.
2F\	.	-ter	.	.	2c\	-ter	.	.	2A/	-ter	.	.
=26	=26	=26	=26	=26	=26	=26	=26	=26	=26	=26	=26	=26
2C/	.	Can-	.	.	2c\	Can-	.	.	2G/	Can-	.	.
1GG/	.	-ta-	.	.	2c\	-ta-	.	.	1G/	-ta-	.	.
!	!	!	!	!	!LO:N:acc=#	!	!	!	!	!	!	!
.	.	.	.	.	2B\	.	.	.	.	.	.	.
=27-	=27	=27	=27	=27	=27-	=27	=27	=27	=27-	=27	=27	=27
*M4/4	*	*	*	*	*M4/4	*	*	*	*M4/4	*	*	*
*met(c)	*	*	*	*	*met(c)	*	*	*	*met(c)	*	*	*
1C/	.	-te	.	.	2c\	-te	.	.	1G/	-te	.	.
.	.	.	.	.	4r	.	.	.	.	.	.	.
.	.	.	.	.	8c\	et	.	.	.	.	.	.
.	.	.	.	.	8c\	tu	.	.	.	.	.	.
=28	=28	=28	=28	=28	=28	=28	=28	=28	=28-	=28	=28	=28
1r	.	.	.	.	8B\	fae-	.	.	2r	.	.	.
.	.	.	.	.	8G\	-lix	.	.	.	.	.	.
.	.	.	.	.	8B\	gau-	.	.	.	.	.	.
.	.	.	.	.	[16B\	-da	.	.	.	.	.	.
.	.	.	.	.	16B\]	.	.	.	.	.	.	.
.	.	.	.	.	[4.c\	Ro-	.	.	4r	.	.	.
.	.	.	.	.	.	.	.	.	8c\	et	.	.
.	.	.	.	.	8c\]	.	.	.	8c\	tu	.	.
=29-	=29	=29	=29	=29	=29	=29	=29	=29	=29	=29	=29	=29
!	!	!	!	!	!	!	!	!	!LO:N:acc=#	!	!	!
4r	.	.	.	.	4d\	-ma	.	.	8Bn\	fae-	.	.
.	.	.	.	.	.	.	.	.	8G\	-lix	.	.
8G\	.	et	.	.	8d\	et	.	.	8B\	gau-	.	.
8G\	.	tu	.	.	8d\	tu	.	.	[16B\	-de	.	.
.	.	.	.	.	.	.	.	.	16B\]	Po-	.	Cra-
8E-X\	.	fae-	.	.	8e-X\	fae-	.	.	8.c\	-lo-	Ro-	-co-
8C/	.	-lix	.	.	8c\	-lix	.	.	.	.	.	.
.	.	.	.	.	.	.	.	.	16c\	-ni-	.	-vi-
8E-X\	.	gau-	.	.	8e-\	gau-	.	.	4G/	-a	-ma	-a
[16E-\	.	-de	.	.	[16c\	-da	.	.	.	.	.	.
16E-\]	.	Po-	.	Cra-	16c\]	Po-	.	Cra-	.	.	.	.
=30	=30	=30	=30	=30	=30	=30	=30	=30	=30	=30	=30	=30
*	*	*	*	*	*	*	*	*	*	*ij	*ij	*ij
!	!	!	!	!	!LO:LB:g=original	!	!	!	!	!	!	!
[4.D/	.	-lo-	Ro-	-co-	8d\L	-lo-	Ro-	-co-	4.d\	et	.	.
.	.	.	.	.	16c\L	.	.	.	.	.	.	.
.	.	.	.	.	16d\JJ	.	.	.	.	.	.	.
.	.	.	.	.	4.B-\	.	.	.	.	.	.	.
8D/]	.	-ni-	.	-vi-	.	.	.	.	8d\	tu	.	.
4C/	.	-a	-ma	-a	.	.	.	.	8e-X\	fae-	.	.
.	.	.	.	.	16c\LL	.	.	.	8c\	-lix	.	.
.	.	.	.	.	16B-\JJ	.	.	.	.	.	.	.
*	*	*ij	*ij	*ij	*	*	*	*	*	*	*	*
8C/	.	et	.	.	8.A\	.	.	.	8e-X\	gau-	.	.
8C/	.	tu	.	.	.	.	.	.	16c\	-de	.	.
.	.	.	.	.	16A\	-ni-	.	-vi-	16c\	Po-	.	Cra-
=31	=31	=31	=31	=31	=31	=31	=31	=31	=31	=31	=31	=31
8BB-/	.	fae-	.	.	4B-,<\	-a	-ma	-a	4.d\	-lo-	Ro-	-co-
8GG/	.	-lix	.	.	.	.	.	.	.	.	.	.
*	*	*	*	*	*	*ij	*ij	*ij	*	*	*	*
8BB-/	.	gau-	.	.	8F/	et	.	.	.	.	.	.
*	*	*	*	*	*	*	*	*	*custos:c	*	*	*
[16BB-/	.	-de	.	.	8G/	tu	.	.	8d\	-ni-	.	-vi-
16BB-/]	.	Po-	.	Cra-	.	.	.	.	.	.	.	.
!	!	!	!	!	!	!	!	!	!LO:LB:g=original	!	!	!
[4.AA/	.	-lo-	Ro-	-co-	8A-X\	fae-	.	.	4c\	-a	-ma	-a
*	*	*	*	*	*	*	*	*	*	*Xij	*Xij	*Xij
.	.	.	.	.	8A-\	-lix	.	.	.	.	.	.
.	.	.	.	.	8E-X/	gau-	.	.	8c\	et	.	.
8AA/]	.	-ni-	.	-vi-	[16F/	-da	.	.	8c\	tu	.	.
.	.	.	.	.	16F/]	Po-	.	Cra-	.	.	.	.
=32	=32	=32	=32	=32	=32	=32	=32	=32	=32	=32	=32	=32
!	!	!	!	!	!	!	!	!	!LO:N:acc=#	!	!	!
2GG/	.	-a	-ma	-a	[8.G/	-lo-	Ro-	-co-	8Bn\	fae-	.	.
.	.	.	.	.	.	.	.	.	8G/	-lix	.	.
.	.	.	.	.	16G/]	ni-	.	-vi-	.	.	.	.
.	.	.	.	.	4G/	-a	-ma	-a	8B\	gau-	.	.
*	*	*Xij	*Xij	*Xij	*	*Xij	*Xij	*Xij	*	*	*	*
.	.	.	.	.	.	.	.	.	[16c\	-de	.	.
.	.	.	.	.	.	.	.	.	16c\]	Po-	.	Cra-
!	!	!	!	!	!LO:N:acc=#	!	!	!	!LO:N:acc=#	!	!	!
4.G\	.	et	.	.	8B\	et	.	.	8Bn\	-lo-	Ro-	-co-
.	.	.	.	.	8B\	tu	.	.	[16B\	-ni-	.	-vi-
.	.	.	.	.	.	.	.	.	16B\]	-a	-ma	-a
*	*	*	*	*	*	*	*	*	*	*ij	*ij	*ij
.	.	.	.	.	8c\	fae-	.	.	8d\	et	.	.
*custos:c	*	*	*	*	*	*	*	*	*	*	*	*
8G\	.	tu	.	.	8c\	-lix	.	.	8d\	tu	.	.
=33	=33	=33	=33	=33	=33	=33	=33	=33	=33	=33	=33	=33
!LO:LB:g=original	!	!	!	!	!	!	!	!	!	!	!	!
8c\	.	fae-	.	.	8A\	gau-	.	.	8e-X\	fae-	.	.
8c\	.	-ix	.	.	[16A\	-de	.	.	8e-\	-lix	.	.
.	.	.	.	.	16A\]	Po-	.	Cra-	.	.	.	.
8F\	.	gau-	.	.	4ryy	.	.	.	8c\	gau-	.	.
[16F\	.	-de	.	.	.	.	.	.	16c\	-de	.	.
16F\]	.	Po-	.	Cra-	.	.	.	.	16c\	Po-	.	Cra-
[8.B-\	.	-lo-	Ro-	-co-	[8.B-\	-lo-	Ro-	-co-	8.d\	-lo-	Ro-	-co-
16B-\]	.	-ni-	.	-vi-	16B-\]	-ni-	.	-vi-	16d\	-ni-	.	-vi-
8B-\	.	-a	-ma	-a	8B-\	-a	-ma	-a	8d\	-a	-ma	-a
*	*	*	*	*	*	*	*	*	*	*Xij	*Xij	*Xij
8E\	.	quae	.	.	8B-\	quae	.	.	8e-X\	quae	.	.
=34	=34	=34	=34	=34	=34	=34	=34	=34	=34	=34	=34	=34
4F\	.	tan-	.	.	4An\	tan-	.	.	4c\	tan-	.	.
!	!	!	!	!	!	!	!	!	!LO:N:acc=#	!	!	!
!	!	!	!	!	!	!	!	!	!LO:TX:t=P:problem=♯above	!	!	!
4G\	.	-ti	.	.	4G/	-ti	.	.	4Bn\	-ti	.	.
4.A-X\	.	vi-	.	.	(4.G/	vi-	.	.	4.c\	vi-	.	.
8A-\	.	-ri	.	.	8F#X/)	-ri	.	.	8d\	-ri	.	.
=35	=35	=35	=35	=35	=35	=35	=35	=35	=35	=35	=35	=35
!	!	!	!	!	!	!	!	!	!LO:N:acc=#	!	!	!
!	!	!	!	!	!	!	!	!	!LO:N:vis=8	!	!	!
4G\	.	es	.	.	4G/	es	.	.	4Bn\	es	.	.
8E-X\	.	de-	.	.	8c\	de-	.	.	8G/	de-	.	.
8E-\	.	-co-	.	.	8B-\	-co-	.	.	8G/	-co-	.	.
4F\	.	-ra-	.	.	4A\	-ra-	.	.	4A\	-ra-	.	.
4C/	.	-ta	.	.	4G\	-ta	.	.	4c\	-ta	.	.
=36	=36	=36	=36	=36	=36-	=36	=36	=36	=36	=36	=36	=36
2.GG/	.	me-	.	.	2.G/	me-	.	.	2.c\	me-	.	.
!	!	!	!	!	!	!	!	!	!LO:N:acc=#	!	!	!
4GG/	.	-ri-	.	.	4G/	-ri-	.	.	4Bn\	-ri-	.	.
=37-	=37	=37	=37	=37	=37	=37	=37	=37	=37-	=37	=37	=37
1C/;<	.	-tis	.	.	1G/;<	-tis	.	.	1c\;<	-tis	.	.
=38	=38	=38	=38	=38	=38-	=38	=38	=38	=38-	=38	=38	=38
*	*	*	*	*	*M4/4	*	*	*	*M4/4	*	*	*
*	*	*	*	*	*met(c)	*	*	*	*met(c)	*	*	*
!	!	!	!	!	!	!	!	!	!LO:LB:g=original	!	!	!
8.c\	.	Er-	.	.	8.c\	Er-	.	.	8.e-X\	Er-	.	.
16c\	.	-go	.	.	16c\	-go	.	.	16e-\	-go	.	.
8c\	.	ſem-	.	.	8c\	ſem-	.	.	8e-\	ſem-	.	.
8c\	.	-per	.	.	8c\	-per	.	.	8e-\	-per	.	.
8.G\	.	Vi-	.	.	8.B-\	Vi-	.	.	8d\	Vi-	.	.
.	.	.	.	.	.	.	.	.	8d\	-uat	.	.
16G\	.	-uat	.	.	16B-\	-uat	.	.	.	.	.	.
8G\	.	ſem-	.	.	8.G/	ſe(m)-	.	.	8B-y\	ſe(m)-	.	.
*custos:E-	*	*	*	*	*	*	*	*	*	*	*	*
8G\	.	-per	.	.	.	.	.	.	8B-\	-per	.	.
.	.	.	.	.	16G/	-p(er)	.	.	.	.	.	.
=39	=39	=39	=39	=39	=39	=39	=39	=39	=39	=39	=39	=39
!LO:LB:g=original	!	!	!	!	!	!	!	!	!	!	!	!
8E-X\	.	re-	.	.	8G/	re-	.	.	8.B-\	re-	.	.
8E-\	.	-gnet	.	.	8G/	-gnat	.	.	.	.	.	.
.	.	.	.	.	.	.	.	.	16B-\	-gnet	.	.
8E-\	.	ſu-	.	.	8G/	ſu-	.	.	8B-\	ſu-	.	.
8E-\	.	-per	.	.	8G/	-per	.	.	8B-\	-per	.	.
8.B-\	.	cae-	.	.	4B-\	cae-	.	.	4d\	cae-	.	.
16B-\	.	-los	.	.	.	.	.	.	.	.	.	.
8B-\	.	et	.	.	8B-\	-los	.	.	8d\	-los	.	.
8B-\	.	in	.	.	8F/	in	.	.	8d\	in	.	.
=40	=40	=40	=40	=40	=40	=40	=40	=40	=40	=40	=40	=40
8.c\	.	glo-	.	.	8.c\	glo-	.	.	8.e-X\	glo-	.	.
16c\	.	-ri-	.	.	16c\	-ri-	.	.	16e-\	-ri-	.	.
8G\	.	-a	.	.	8B-\	-a	.	.	8d\	-a	.	.
8G\	.	cum	.	.	8B-\	cu(m)	.	.	8d\	Cum	.	.
8.A-X\	.	ſan-	.	.	8A-X\	ſan-	.	.	8c\	ſan-	.	.
.	.	.	.	.	8A-\	-ctis	.	.	8c\	-ctis	.	.
16A-\	.	-ctis	.	.	.	.	.	.	.	.	.	.
8E\	.	in	.	.	8G\	in	.	.	8.B-\	in	.	.
8E\	.	ae-	.	.	8G\	ae-	.	.	.	.	.	.
.	.	.	.	.	.	.	.	.	16B-\	ae-	.	.
=41	=41	=41	=41	=41	=41	=41	=41	=41	=41	=41	=41	=41
8.F\	.	-ter-	.	.	8.c\	-ter-	.	.	8.A\	-ter-	.	.
16F\	.	-nu(m)	.	.	16c\	-nu(m)	.	.	16A\	-nu(m)	.	.
8.C/	.	Vi-	.	.	8.c\	Vi-	.	.	8.c\	Vi-	.	.
16C/	.	-ge-	.	.	16G/	-ge-	.	.	16c\	-ge-	.	.
!	!	!	!	!	!	!	!	!	!LO:N:acc=#	!	!	!
4G\	.	-at	.	.	4G/	-at	.	.	4Bn\	-at	.	.
4r	.	.	.	.	4r	.	.	.	4r	.	.	.
=42	=42	=42	=42	=42	=42	=42	=42	=42	=42	=42	=42	=42
8.E-X\	.	er-	.	.	8.B-\	er-	.	.	8e-X\	Er-	.	.
.	.	.	.	.	.	.	.	.	8e-\	-go	.	.
16E-\	.	-go	.	.	16B-\	-go	.	.	.	.	.	.
!	!	!	!	!	!	!	!	!	!LO:LB:g=original	!	!	!
8E-\	.	ſem-	.	.	8B-\	ſe(m)-	.	.	8e-\	ſem-	.	.
8E-\	.	-per	.	.	8B-\	-p(er)	.	.	8e-\	-per	.	.
8.BB-/	.	Vi-	.	.	8B-\	Vi-	.	.	8.d\	Vi-	.	.
*	*	*	*	*	*custos:B-	*	*	*	*	*	*	*
.	.	.	.	.	8B-\	-uat	.	.	.	.	.	.
16BB-/	.	-uat	.	.	.	.	.	.	16d\	-uat	.	.
!	!	!	!	!	!LO:LB:g=original	!	!	!	!	!	!	!
8BB-/	.	ſe(m)-	.	.	8B-\	ſem-	.	.	8d\	ſem-	.	.
8BB-/	.	-per	.	.	8B-\	-p(er)	.	.	8d\	-per	.	.
=43	=43	=43	=43	=43	=43-	=43	=43	=43	=43	=43	=43	=43
!LO:LB:g=original	!	!	!	!	!	!	!	!	!	!	!	!
8.C/	.	re-	.	.	8.G\	re-	.	.	8.c\	re-	.	.
16C/	.	-gnet	.	.	16G\	-gnet	.	.	16c\	-gnet	.	.
8C/	.	ſu-	.	.	8G\	ſu-	.	.	8c\	ſu-	.	.
8C/	.	-per	.	.	8G\	-p(er)	.	.	8c\	-per	.	.
8.G\	.	cae-	.	.	8G\	cae-	.	.	8.B-\	cae-	.	.
.	.	.	.	.	8G\	-los	.	.	.	.	.	.
16G\	.	-los	.	.	.	.	.	.	16B-\	-los	.	.
!	!	!	!	!	!LO:TX:t=P:problem=kreska taktowa	!	!	!	!	!	!	!
8G\	.	et	.	.	8G\	et	.	.	8B-\	et	.	.
8G\	.	â	.	.	8B-\	a	.	.	8B-\	à	.	.
=44	=44	=44	=44	=44	=44-	=44	=44	=44	=44	=44	=44	=44
8A-X\	.	De-	.	.	8A-X\	De-	.	.	8c\	De-	.	.
8A-\	.	-o	.	.	8A-\	-o	.	.	8c\	-o	.	.
8E-X\	.	no-	.	.	8G/	no-	.	.	8.B-\	no-	.	.
8E-\	.	-bis	.	.	8G/	-bis	.	.	.	.	.	.
.	.	.	.	.	.	.	.	.	16B-\	-bis	.	.
8.F\	.	ve-	.	.	8.c\	Ve-	.	.	8.A/	ve-	.	.
16F\	.	-ni-	.	.	16c\	-ni-	.	.	16A/	-ni-	.	.
8C/	.	-am	.	.	8c\	-am	.	.	8G/	-am	.	.
8C/	.	pre-	.	.	8G/	pre-	.	.	8c\	pre-	.	.
=45	=45	=45	=45	=45	=45	=45	=45	=45	=45	=45	=45	=45
!LO:SIC:l:v:s=-ca-	!	!	!	!	!	!	!	!	!	!	!	!
4G\	.	-ce-	.	.	2G/	-ca-	.	.	4.c\	-ca-	.	.
4GG/	.	.	.	.	.	.	.	.	.	.	.	.
!	!	!	!	!	!	!	!	!	!LO:N:acc=#	!	!	!
!	!	!	!	!	!	!	!	!	!LO:TX:t=P:♯below:problem	!	!	!
.	.	.	.	.	.	.	.	.	8Bn\	.	.	.
2C/	.	-tur	.	.	2G/	-tur	.	.	2c\	-tur	.	.
=46	=46	=46	=46	=46	=46	=46	=46	=46	=46	=46	=46	=46
8.c\	.	in-	.	.	8.c\	in-	.	.	8.e-X\	in-	.	.
16c\	.	-te-	.	.	16c\	-te-	.	.	16e-\	-te-	.	.
8c\	.	-rim	.	.	8c\	-rim	.	.	8e-\	-rim	.	.
8r	.	.	.	.	8r	.	.	.	8r	.	.	.
8.G\	.	po-	.	.	8.B-\	po-	.	.	8.d\	po-	.	.
16G\	.	-pu-	.	.	16B-\	-pu-	.	.	16d\	-pu-	.	.
8G\	.	-li	.	.	8B-\	-li	.	.	8d\	-li	.	.
8r	.	.	.	.	8r	.	.	.	8r	.	.	.
=47	=47	=47	=47	=47	=47	=47	=47	=47	=47	=47	=47	=47
!	!	!	!	!	!	!	!	!	!LO:LB:g=original	!	!	!
8.A-X\	.	plau-	.	.	8.A-X\	plau-	.	.	8.c\	plau-	.	.
16A-\	.	-di-	.	.	16A-\	-di-	.	.	16c\	-di-	.	.
8A-\	.	-te	.	.	8A-\	-te	.	.	8c\	-te	.	.
8r	.	.	.	.	8r	.	.	.	8r	.	.	.
8.E-X\	.	vo-	.	.	8.G\	Vo-	.	.	8.B-\	vo-	.	.
16E-\	.	-ci-	.	.	16G\	-ci-	.	.	16B-\	-ci-	.	.
8E-\	.	-bus	.	.	8G\	-bus	.	.	8B-\	-bus	.	.
*	*	*	*	*	*custos:c	*	*	*	*	*	*	*
8r	.	.	.	.	8r	.	.	.	8r	.	.	.
=48	=48	=48	=48	=48	=48	=48	=48	=48	=48	=48	=48	=48
!	!	!	!	!	!LO:LB:g=original	!	!	!	!	!	!	!
8.F\	.	di-	.	.	8.c\	di-	.	.	8.A-X/	di-	.	.
16F\	.	-ci-	.	.	16c\	-ci-	.	.	16A-/	-ci-	.	.
8F\	.	-te	.	.	8c\	-te	.	.	8A-/	-te	.	.
8r	.	.	.	.	8r	.	.	.	8r	.	.	.
!LO:SIC:v:s=E-	!	!	!	!	!	!	!	!	!	!	!	!
4E\	.	O	.	.	4e-X\	O	.	.	4B-\	O.	.	.
8r	.	.	.	.	8r	.	.	.	8r	.	.	.
8BB-/	.	o	.	.	8d\	o	.	.	8B-\	o	.	.
=49	=49	=49	=49	=49	=49	=49	=49	=49	=49	=49	=49	=49
!	!	!	!	!	!LO:SIC:v:s=ee-	!	!	!	!	!	!	!
8C/	.	cae-	.	.	8e\	cae-	.	.	8G/	cae-	.	.
8GG/	.	-li	.	.	8d\	-li	.	.	8B-/	-li	.	.
4D/	.	de-	.	.	4d\	de-	.	.	4A/	de-	.	.
4GG/	.	-cus	.	.	4d\	-cus	.	.	4G/	-cus	.	.
8r	.	.	.	.	8r	.	.	.	8r	.	.	.
*	*	*ij	*	*	*	*ij	*	*	*	*ij	*	*
8G\	.	o	.	.	8B-\	o	.	.	8B-\	o	.	.
=50	=50	=50	=50	=50	=50	=50	=50	=50	=50	=50	=50	=50
!LO:SIC:v:s=A-	!	!	!	!	!	!	!	!	!	!	!	!
8A\	.	cae-	.	.	8A-X\	cae-	.	.	8c\	cae-	.	.
8E-X\	.	-li	.	.	8G\	-li	.	.	8B-\	-li	.	.
4BB-/	.	de-	.	.	4F/	de-	.	.	4B-\	de-	.	.
4E-\	.	-cus	.	.	4G/	-cus	.	.	4B-\	-cus	.	.
*	*	*Xij	*	*	*	*Xij	*	*	*	*Xij	*	*
8r	.	.	.	.	8r	.	.	.	8r	.	.	.
8E-\	.	o	.	.	8B-\	o	.	.	8e-X\	O	.	.
=51	=51	=51	=51	=51	=51	=51	=51	=51	=51	=51	=51	=51
8F\	.	cae-	.	.	8A-X\	cae-	.	.	8c\	cae-	.	.
8C/	.	-li	.	.	8G\	-li	.	.	8c\	-li	.	.
!	!	!	!	!	!	!	!	!	!LO:N:acc=#	!	!	!
4G\	.	de-	.	.	4G/	de-	.	.	4Bn\	de-	.	.
4C/	.	-cus	.	.	4G/	-cus	.	.	4c\	-cus	.	.
8r	.	.	.	.	8r	.	.	.	8r	.	.	.
!	!	!	!	!	!	!	!	!	!LO:SIC:v:s=8e-	!	!	!
*	*	*ij	*	*	*	*ij	*	*	*	*ij	*	*
8E\	.	o	.	.	8B-\	o	.	.	8e\	o	.	.
=52	=52	=52	=52	=52	=52	=52	=52	=52	=52	=52	=52	=52
8F\	.	cae-	.	.	8A-X\	cae-	.	.	8c\	cae-	.	.
8C/	.	-li	.	.	8G\	-li	.	.	8c\	-li	.	.
4GG/	.	de-	.	.	4G/	de-	.	.	4Bn\	de-	.	.
4C/	.	-cus	.	.	4G/	-cus	.	.	4c\	-cus	.	.
*	*	*Xij	*	*	*	*Xij	*	*	*	*Xij	*	*
!LO:TX:b:i:t=Exultate ſi placet Ut supra	!	!	!	!	!LO:TX:b:i:t=Exultate ſi placet \nUt supra	!	!	!	!LO:TX:b:i:t=Exultate ſi placet Ut ſupra	!	!	!
4r	.	.	.	.	4r	.	.	.	4r	.	.	.
==	==	==	==	==	==	==	==	==	==	==	==	==
*-	*-	*-	*-	*-	*-	*-	*-	*-	*-	*-	*-	*-
!!!system-decoration: s1,s2,s3
!!!RDF**kern: > = above
!!!RDF**kern: < = below
!!!EED: Andrzej Borzym
!!!EEV: 2021-04-06
!!!ENC: Marcin Jachim
!!!END: 2021-03-27
!!!YEC: Copyright 2022 Narodowy Instytut Fryderyka Chopina (https://polishscores.org)
!!!YEM: License CC-BY-4.0 (https://creativecommons.org/licenses/by/4.0)
